img/ico/calculator-ico.svg

<svg width="24" height="24" viewBox="0 0 24 24" fill="none" xmlns="http://www.w3.org/2000/svg">
<path d="M18.4616 0H5.53852C4.0099 0 2.76929 1.24062 2.76929 2.76923V21.2308C2.76929 22.7594 4.0099 24 5.53852 24H18.4616C19.9902 24 21.2309 22.7594 21.2309 21.2308V2.76923C21.2309 1.24062 19.9902 0 18.4616 0ZM19.3847 7.38462C19.3847 7.89323 18.9702 8.30769 18.4616 8.30769H5.53852C5.0299 8.30769 4.61544 7.89323 4.61544 7.38462V2.76923C4.61544 2.26062 5.0299 1.84615 5.53852 1.84615H18.4616C18.9702 1.84615 19.3847 2.26062 19.3847 2.76923V7.38462ZM8.30775 12C8.30775 12.5086 7.89329 12.9231 7.38467 12.9231H5.53852C5.0299 12.9231 4.61544 12.5086 4.61544 12V11.0769C4.61544 10.5683 5.0299 10.1538 5.53852 10.1538H7.38467C7.89329 10.1538 8.30775 10.5683 8.30775 11.0769V12ZM13.8462 12C13.8462 12.5086 13.4318 12.9231 12.9232 12.9231H11.077C10.5684 12.9231 10.1539 12.5086 10.1539 12V11.0769C10.1539 10.5683 10.5684 10.1538 11.077 10.1538H12.9232C13.4318 10.1538 13.8462 10.5683 13.8462 11.0769V12ZM19.3847 12C19.3847 12.5086 18.9702 12.9231 18.4616 12.9231H16.6155C16.1069 12.9231 15.6924 12.5086 15.6924 12V11.0769C15.6924 10.5683 16.1069 10.1538 16.6155 10.1538H18.4616C18.9702 10.1538 19.3847 10.5683 19.3847 11.0769V12ZM8.30775 16.6154C8.30775 17.124 7.89329 17.5385 7.38467 17.5385H5.53852C5.0299 17.5385 4.61544 17.124 4.61544 16.6154V15.6923C4.61544 15.1837 5.0299 14.7692 5.53852 14.7692H7.38467C7.89329 14.7692 8.30775 15.1837 8.30775 15.6923V16.6154ZM13.8462 16.6154C13.8462 17.124 13.4318 17.5385 12.9232 17.5385H11.077C10.5684 17.5385 10.1539 17.124 10.1539 16.6154V15.6923C10.1539 15.1837 10.5684 14.7692 11.077 14.7692H12.9232C13.4318 14.7692 13.8462 15.1837 13.8462 15.6923V16.6154ZM19.3847 16.6154C19.3847 17.124 18.9702 17.5385 18.4616 17.5385H16.6155C16.1069 17.5385 15.6924 17.124 15.6924 16.6154V15.6923C15.6924 15.1837 16.1069 14.7692 16.6155 14.7692H18.4616C18.9702 14.7692 19.3847 15.1837 19.3847 15.6923V16.6154ZM8.30775 21.2308C8.30775 21.7394 7.89329 22.1538 7.38467 22.1538H5.53852C5.0299 22.1538 4.61544 21.7394 4.61544 21.2308V20.3077C4.61544 19.7991 5.0299 19.3846 5.53852 19.3846H7.38467C7.89329 19.3846 8.30775 19.7991 8.30775 20.3077V21.2308ZM13.8462 21.2308C13.8462 21.7394 13.4318 22.1538 12.9232 22.1538H11.077C10.5684 22.1538 10.1539 21.7394 10.1539 21.2308V20.3077C10.1539 19.7991 10.5684 19.3846 11.077 19.3846H12.9232C13.4318 19.3846 13.8462 19.7991 13.8462 20.3077V21.2308ZM19.3847 21.2308C19.3847 21.7394 18.9702 22.1538 18.4616 22.1538H16.6155C16.1069 22.1538 15.6924 21.7394 15.6924 21.2308V20.3077C15.6924 19.7991 16.1069 19.3846 16.6155 19.3846H18.4616C18.9702 19.3846 19.3847 19.7991 19.3847 20.3077V21.2308Z" fill="#DC3545"/>
<path d="M17.5385 3.69212V6.46135H15.6924V3.69212H17.5385ZM17.5385 2.76904H15.6924C15.1837 2.76904 14.7693 3.1835 14.7693 3.69212V6.46135C14.7693 6.96996 15.1837 7.38442 15.6924 7.38442H17.5385C18.0471 7.38442 18.4616 6.96996 18.4616 6.46135V3.69212C18.4616 3.1835 18.0471 2.76904 17.5385 2.76904Z" fill="#DC3545"/>
</svg>

<svg xmlns="http://www.w3.org/2000/svg" width="24" height="24" fill="currentColor" viewBox="0 0 24 24" class="svg-icon">
    <path
        d="M18.462 0H5.539a2.77 2.77 0 0 0-2.77 2.77v18.46A2.77 2.77 0 0 0 5.54 24h12.923a2.77 2.77 0 0 0 2.769-2.77V2.77A2.77 2.77 0 0 0 18.46 0m.923 7.385a.925.925 0 0 1-.923.923H5.539a.925.925 0 0 1-.924-.923V2.769c0-.508.415-.923.924-.923h12.923c.508 0 .923.415.923.923zM8.308 12a.925.925 0 0 1-.923.923H5.539A.925.925 0 0 1 4.615 12v-.923c0-.509.415-.923.924-.923h1.846c.508 0 .923.414.923.923zm5.538 0a.925.925 0 0 1-.923.923h-1.846a.925.925 0 0 1-.923-.923v-.923c0-.509.414-.923.923-.923h1.846c.509 0 .923.414.923.923zm5.539 0a.925.925 0 0 1-.923.923h-1.846a.925.925 0 0 1-.924-.923v-.923c0-.509.415-.923.924-.923h1.846c.508 0 .923.414.923.923zM8.308 16.615a.925.925 0 0 1-.923.924H5.539a.925.925 0 0 1-.924-.924v-.923c0-.508.415-.923.924-.923h1.846c.508 0 .923.415.923.923zm5.538 0a.925.925 0 0 1-.923.924h-1.846a.925.925 0 0 1-.923-.924v-.923c0-.508.414-.923.923-.923h1.846c.509 0 .923.415.923.923zm5.539 0a.925.925 0 0 1-.923.924h-1.846a.925.925 0 0 1-.924-.924v-.923c0-.508.415-.923.924-.923h1.846c.508 0 .923.415.923.923zM8.308 21.231a.925.925 0 0 1-.923.923H5.539a.925.925 0 0 1-.924-.923v-.923c0-.509.415-.923.924-.923h1.846c.508 0 .923.414.923.923zm5.538 0a.924.924 0 0 1-.923.923h-1.846a.925.925 0 0 1-.923-.923v-.923c0-.509.414-.923.923-.923h1.846c.509 0 .923.414.923.923zm5.539 0a.925.925 0 0 1-.923.923h-1.846a.925.925 0 0 1-.924-.923v-.923c0-.509.415-.923.924-.923h1.846c.508 0 .923.414.923.923z" />
    <path
        d="M17.539 3.692v2.77h-1.847v-2.77zm0-.923h-1.847a.925.925 0 0 0-.923.923v2.77c0 .508.415.922.923.922h1.846a.925.925 0 0 0 .924-.923V3.692a.925.925 0 0 0-.924-.923" />
</svg>
